X: 343
T: New Christmas
R: reel
M: C
L: 1/8
Z: 2012 John Chambers <jc:trillian.mit.edu>
B: J. Anderson "Budget of Strathspeys, Reels and Country Dances" (Early 1800s) p.34 #3
F: http://imslp.org/wiki/Anderson%27s_Budget_of_Strathspeys,_Reels_and_Country_Dances_(Various)
N: The 2nd part lacks its initial repeat; added.
K: G
d | B2(GB) dgdB | gg a/g/f/e/ aAAd | B2(GB) dgdB | cA (d/c/B/A/) BGG :|
|: d | (B/A/G) dG eGdG | (B/A/G) dG eAAe | (B/A/G) dG eGdG | egfa gGG :|

%%sep 2 1 500
%%sep 1 1 500

